dist/svg/file-zip-o.svg

<!-- Generated by Trend Micro Style Portal -->
<svg version="1.1" xmlns="http://www.w3.org/2000/svg" width="16" height="16" viewBox="0 0 16 16">
  <title>file-zip-o</title>
  <path fill="rgb(34,34,34)" d="M11 0h-9c-0.5 0-1 0.5-1 1v14c0 0.5 0.5 1 1 1h12c0.5 0 1-0.5 1-1v-11l-4-4zM11 1.4l2.6 2.6h-2.6v-2.6zM14 15h-12v-14h2v1h2v-1h4v4h4v10zM6 3v-1h2v1h-2zM4 3h2v1h-2v-1zM6 5v-1h2v1h-2zM4 5h2v1h-2v-1zM6 7v-1h2v1h-2zM4 7h2v1h-2v-1zM6 9v-1h2v1h-2zM4 10v4h4v-4h-2v-1h-2v1zM7 13h-2v-1h2v1z"></path>
</svg>

<svg width="16" height="16" viewBox="0 0 16 16" fill="rgb(34, 34, 34)" xmlns="http://www.w3.org/2000/svg"><title>file-zip-o</title><path d="M11 0H2C1.5 0 1 0.5 1 1V15C1 15.5 1.5 16 2 16H14C14.5 16 15 15.5 15 15V4L11 0ZM11 1.4L13.6 4H11V1.4ZM14 15H2V1H4V2H6V1H10V5H14V15ZM6 3V2H8V3H6ZM4 3H6V4H4V3ZM6 5V4H8V5H6ZM4 5H6V6H4V5ZM6 7V6H8V7H6ZM4 7H6V8H4V7ZM6 9V8H8V9H6ZM4 10V14H8V10H6V9H4V10ZM7 13H5V12H7V13Z" fill="rgb(34, 34, 34)" fill-opacity="1.00"/></svg>
